static/img/common/ico-menu2.svg

<svg width="11" height="11" viewBox="0 0 11 11" fill="none" xmlns="http://www.w3.org/2000/svg">
<path d="M3.67353 0.491089H1.326C0.864906 0.491089 0.491112 0.864883 0.491112 1.32598V3.6735C0.491112 4.1346 0.864906 4.5084 1.326 4.5084H3.67353C4.13462 4.5084 4.50842 4.1346 4.50842 3.6735V1.32598C4.50842 0.864883 4.13462 0.491089 3.67353 0.491089Z" fill="#231815" stroke="currentColor" stroke-miterlimit="10"/>
<path d="M9.17397 0.491089H6.82645C6.36535 0.491089 5.99155 0.864883 5.99155 1.32598V3.6735C5.99155 4.1346 6.36535 4.5084 6.82645 4.5084H9.17397C9.63507 4.5084 10.0089 4.1346 10.0089 3.6735V1.32598C10.0089 0.864883 9.63507 0.491089 9.17397 0.491089Z" fill="#231815" stroke="currentColor" stroke-miterlimit="10"/>
<path d="M3.67353 5.96216H1.326C0.864906 5.96216 0.491112 6.33595 0.491112 6.79705V9.14457C0.491112 9.60567 0.864906 9.97946 1.326 9.97946H3.67353C4.13462 9.97946 4.50842 9.60567 4.50842 9.14457V6.79705C4.50842 6.33595 4.13462 5.96216 3.67353 5.96216Z" fill="#231815" stroke="currentColor" stroke-miterlimit="10"/>
<path d="M9.17397 5.96216H6.82645C6.36535 5.96216 5.99155 6.33595 5.99155 6.79705V9.14457C5.99155 9.60567 6.36535 9.97946 6.82645 9.97946H9.17397C9.63507 9.97946 10.0089 9.60567 10.0089 9.14457V6.79705C10.0089 6.33595 9.63507 5.96216 9.17397 5.96216Z" fill="#231815" stroke="currentColor" stroke-miterlimit="10"/>
</svg>

<svg xmlns="http://www.w3.org/2000/svg" width="11" height="11" fill="none" viewBox="0 0 11 11"><path fill="#231815" stroke="currentColor" stroke-miterlimit="10" d="M3.674.491H1.326a.835.835 0 0 0-.835.835v2.348c0 .46.374.834.835.834h2.348a.835.835 0 0 0 .834-.834V1.326a.835.835 0 0 0-.834-.835ZM9.174.491H6.826a.835.835 0 0 0-.834.835v2.348c0 .46.373.834.834.834h2.348a.835.835 0 0 0 .835-.834V1.326a.835.835 0 0 0-.835-.835ZM3.674 5.962H1.326a.835.835 0 0 0-.835.835v2.348c0 .46.374.834.835.834h2.348a.835.835 0 0 0 .834-.834V6.797a.835.835 0 0 0-.834-.835ZM9.174 5.962H6.826a.835.835 0 0 0-.834.835v2.348c0 .46.373.834.834.834h2.348a.835.835 0 0 0 .835-.834V6.797a.835.835 0 0 0-.835-.835Z"/></svg>
